img/advantages-6.svg

<svg width="64" height="66" viewBox="0 0 64 66" fill="none" xmlns="http://www.w3.org/2000/svg">
<path d="M54.025 49.7191H9.97503C8.96253 49.7191 8.15002 48.8812 8.15002 47.8371V45.8519C8.15002 32.291 18.85 21.2566 32 21.2566C34.4875 21.2566 36.9375 21.6562 39.2875 22.4296C40.25 22.7519 40.775 23.8089 40.475 24.8015C40.1625 25.7941 39.1375 26.3355 38.175 26.0261C36.1875 25.3687 34.1125 25.0335 32 25.0335C20.8625 25.0335 11.8 34.3793 11.8 45.8648V45.9679H52.2V45.8648C52.2 40.2703 50.075 35.0109 46.225 31.0664C45.5125 30.3316 45.5 29.1457 46.2125 28.398C46.925 27.6632 48.075 27.6503 48.8 28.3851C53.35 33.0386 55.8625 39.239 55.8625 45.8519V47.8371C55.85 48.8812 55.0375 49.7191 54.025 49.7191Z" fill="#F0BF5F"/>
<path d="M32.0001 24.5824C30.9876 24.5824 30.175 23.7445 30.175 22.7004V17.3637C30.175 16.3195 30.9876 15.4816 32.0001 15.4816C33.0126 15.4816 33.8251 16.3195 33.8251 17.3637V22.7004C33.8251 23.7445 33.0126 24.5824 32.0001 24.5824Z" fill="#F0BF5F"/>
<path d="M36.4751 18.8074H27.5251C26.5126 18.8074 25.7001 17.9695 25.7001 16.9254C25.7001 15.8812 26.5126 15.0433 27.5251 15.0433H36.4751C37.4876 15.0433 38.3001 15.8812 38.3001 16.9254C38.3001 17.9695 37.4876 18.8074 36.4751 18.8074Z" fill="#F0BF5F"/>
<path d="M47.9875 47.8371H16V55.7648H47.9875V47.8371Z" fill="#CEE8FA"/>
<path d="M48.0001 57.6469H16C14.9875 57.6469 14.175 56.809 14.175 55.7648V47.8371C14.175 46.793 14.9875 45.9551 16 45.9551H48.0001C49.0126 45.9551 49.8251 46.793 49.8251 47.8371V55.7648C49.8251 56.809 49.0001 57.6469 48.0001 57.6469ZM17.8375 53.8828H46.1751V49.7191H17.8375V53.8828Z" fill="#F0BF5F"/>
<path d="M54.2375 61.8106H9.76248C7.63748 61.8106 5.91248 60.0317 5.91248 57.8402C5.91248 55.6488 7.63748 53.8699 9.76248 53.8699H54.2375C56.3625 53.8699 58.0875 55.6488 58.0875 57.8402C58.075 60.0317 56.3625 61.8106 54.2375 61.8106Z" fill="#CEE8FA"/>
<path d="M54.2375 63.6926H9.76252C6.63752 63.6926 4.08752 61.0758 4.08752 57.8403C4.08752 54.6047 6.62502 51.9879 9.76252 51.9879H54.2375C57.3625 51.9879 59.9125 54.6176 59.9125 57.8403C59.9 61.0758 57.3625 63.6926 54.2375 63.6926ZM9.76252 55.7649C8.65002 55.7649 7.75002 56.693 7.75002 57.8403C7.75002 58.9875 8.65002 59.9156 9.76252 59.9156H54.2375C55.35 59.9156 56.25 58.9875 56.25 57.8403C56.25 56.693 55.35 55.7649 54.2375 55.7649H9.76252Z" fill="#2D527C"/>
<path d="M32.0001 9.73243C30.9876 9.73243 30.175 8.89454 30.175 7.8504V4.18947C30.175 3.14532 30.9876 2.30743 32.0001 2.30743C33.0126 2.30743 33.8251 3.14532 33.8251 4.18947V7.8504C33.8251 8.89454 33.0126 9.73243 32.0001 9.73243Z" fill="#2D527C"/>
<path d="M62.175 35.3074H58.625C57.6125 35.3074 56.8 34.4695 56.8 33.4254C56.8 32.3813 57.6125 31.5434 58.625 31.5434H62.175C63.1875 31.5434 64 32.3813 64 33.4254C64 34.4695 63.1875 35.3074 62.175 35.3074Z" fill="#2D527C"/>
<path d="M5.375 35.3074H1.825C0.8125 35.3074 0 34.4695 0 33.4254C0 32.3813 0.8125 31.5434 1.825 31.5434H5.375C6.3875 31.5434 7.2 32.3813 7.2 33.4254C7.2 34.4695 6.3875 35.3074 5.375 35.3074Z" fill="#2D527C"/>
<path d="M49.5375 17.2219C49.075 17.2219 48.6 17.0414 48.25 16.6676C47.5375 15.9328 47.5375 14.734 48.25 13.9992L50.75 11.4211C51.4625 10.6863 52.625 10.6863 53.3375 11.4211C54.05 12.1559 54.05 13.3547 53.3375 14.0895L50.825 16.6805C50.475 17.0414 50 17.2219 49.5375 17.2219Z" fill="#2D527C"/>
<path d="M14.4625 17.2219C14 17.2219 13.525 17.0414 13.175 16.6676L10.6625 14.0766C9.95005 13.3418 9.95005 12.143 10.6625 11.4082C11.375 10.6735 12.5375 10.6735 13.25 11.4082L15.7625 13.9992C16.475 14.734 16.475 15.9328 15.7625 16.6676C15.4 17.0414 14.9375 17.2219 14.4625 17.2219Z" fill="#2D527C"/>
</svg>

<svg width="64" height="66" fill="none" xmlns="http://www.w3.org/2000/svg"><path d="M54.025 49.72H9.975c-1.012 0-1.825-.839-1.825-1.883v-1.985c0-13.561 10.7-24.595 23.85-24.595 2.487 0 4.938.4 7.288 1.173.962.322 1.487 1.379 1.187 2.372-.313.992-1.337 1.534-2.3 1.224A19.618 19.618 0 0 0 32 25.034c-11.137 0-20.2 9.345-20.2 20.83v.104h40.4v-.103c0-5.595-2.125-10.854-5.975-14.799a1.933 1.933 0 0 1-.013-2.668 1.794 1.794 0 0 1 2.588-.013c4.55 4.654 7.063 10.854 7.063 17.467v1.985c-.013 1.044-.825 1.882-1.838 1.882Z" fill="#F0BF5F"/><path d="M32 24.582c-1.012 0-1.825-.838-1.825-1.882v-5.336c0-1.044.813-1.882 1.825-1.882 1.013 0 1.825.838 1.825 1.882V22.7c0 1.044-.812 1.882-1.825 1.882Z" fill="#F0BF5F"/><path d="M36.475 18.807h-8.95c-1.012 0-1.825-.837-1.825-1.882 0-1.044.813-1.882 1.825-1.882h8.95c1.013 0 1.825.838 1.825 1.882s-.812 1.882-1.825 1.882Z" fill="#F0BF5F"/><path d="M47.987 47.837H16v7.928h31.987v-7.928Z" fill="#CEE8FA"/><path d="M48 57.647H16c-1.012 0-1.825-.838-1.825-1.882v-7.928c0-1.044.813-1.882 1.825-1.882h32c1.013 0 1.825.838 1.825 1.882v7.928c0 1.044-.825 1.882-1.825 1.882Zm-30.163-3.764h28.338v-4.164H17.838v4.164Z" fill="#F0BF5F"/><path d="M54.237 61.81H9.762c-2.125 0-3.85-1.778-3.85-3.97 0-2.191 1.725-3.97 3.85-3.97h44.475c2.125 0 3.85 1.779 3.85 3.97-.012 2.192-1.725 3.97-3.85 3.97Z" fill="#CEE8FA"/><path d="M54.237 63.693H9.764c-3.125 0-5.675-2.617-5.675-5.853 0-3.235 2.537-5.852 5.675-5.852h44.474c3.125 0 5.675 2.63 5.675 5.852-.012 3.236-2.55 5.853-5.675 5.853ZM9.764 55.765c-1.113 0-2.013.928-2.013 2.075 0 1.147.9 2.076 2.013 2.076h44.474c1.113 0 2.013-.928 2.013-2.076 0-1.147-.9-2.075-2.013-2.075H9.764ZM32 9.732c-1.012 0-1.825-.837-1.825-1.882V4.19c0-1.045.813-1.883 1.825-1.883 1.013 0 1.825.838 1.825 1.882V7.85c0 1.045-.812 1.882-1.825 1.882ZM62.175 35.307h-3.55c-1.013 0-1.825-.838-1.825-1.882s.813-1.882 1.825-1.882h3.55c1.013 0 1.825.838 1.825 1.882s-.813 1.882-1.825 1.882ZM5.375 35.307h-3.55C.813 35.307 0 34.47 0 33.425s.813-1.882 1.825-1.882h3.55c1.013 0 1.825.838 1.825 1.882s-.813 1.882-1.825 1.882ZM49.538 17.222a1.76 1.76 0 0 1-1.288-.554 1.933 1.933 0 0 1 0-2.669l2.5-2.578a1.794 1.794 0 0 1 2.587 0 1.933 1.933 0 0 1 0 2.668l-2.512 2.591c-.35.361-.825.542-1.288.542ZM14.463 17.222a1.76 1.76 0 0 1-1.288-.554l-2.513-2.591a1.933 1.933 0 0 1 0-2.669 1.794 1.794 0 0 1 2.588 0L15.762 14a1.933 1.933 0 0 1 0 2.669 1.788 1.788 0 0 1-1.3.554Z" fill="#2D527C"/></svg>
